X:1
T:Varsoviana ~(From Warsaw)
M:3/4
R:Mazurka
L:1/8
K:G
B3/2c/2|d2g2f2|c4A3/2B/2|c2e2d2|B4G3/2A/2|B2A2B2|
c7/2B/2 c3/2d/2|1e2d2c2|B4:|2e2d2F2|G4|
|:G3/2A/2|B3/2G/2D2G3/2A/2|B3/2G/2D2G3/2A/2|B2c2B2|A4F3/2G/2|
A3/2F/2D2F3/2G/2|A3/2F/2D2F3/2G/2|A2c2B2|G4:
